svg_80x80/falcon.svg

<svg viewBox="0 0 80 80" xmlns="http://www.w3.org/2000/svg">
<rect width="100%" height="100%" fill="#202020"/>
<path d="M67.901 11.6711C68.0724 11.2902 68.32 10.9093 68.4152 10.8332C68.5295 10.757 68.6437 10.6808 68.6818 10.6808C68.8151 10.6808 68.4914 13.0422 68.2248 14.0134C67.7106 15.9177 67.5392 16.3367 66.6823 18.0315C65.0826 21.2117 62.8546 23.1732 57.2749 26.3534C53.2949 28.6005 51.105 31.2856 50.0766 35.1513C49.7148 36.4653 49.2197 39.1123 48.8769 41.4356C48.7626 42.2735 48.5341 43.6065 48.3818 44.3873C47.8676 46.8438 47.8676 46.8629 48.1913 46.8629C49.0102 46.8629 52.0571 50.424 53.6567 53.2233L53.6746 53.2558C53.8843 53.637 54.1958 54.2036 54.3994 54.5182C56.6275 58.4602 59.9791 62.6687 62.607 64.8206C63.7687 65.7918 66.4538 67.6009 67.8439 68.3817C68.4723 68.7245 69.1388 69.1434 69.3293 69.2957C69.8815 69.7909 69.6721 71.4286 69.0436 71.4286C68.9675 71.4286 68.2819 70.8954 67.5202 70.2669C66.7584 69.6195 65.5778 68.7054 64.8922 68.2293C64.2067 67.7342 63.5592 67.2581 63.4449 67.1439C62.8546 66.6107 59.3126 64.135 57.5035 62.9925C53.6187 60.5359 48.5913 58.2888 46.9916 58.2888C45.83 58.2888 44.8207 58.9934 43.7352 60.574C42.9545 61.7166 42.745 61.9641 41.5262 63.1448C40.5169 64.1541 39.3934 64.8396 38.1937 65.2205C37.6795 65.3728 37.7938 65.7918 38.4222 66.0584C39.0506 66.3441 39.5648 67.1439 39.5648 67.8675C39.5648 68.4388 38.9935 68.7244 38.8602 68.2293C38.784 67.9246 37.4129 67.0487 37.013 67.0487C36.9368 67.0487 36.9178 67.3724 36.9749 67.7533C37.3367 69.7718 37.3177 69.8861 36.9178 70.4574C36.6893 70.7621 36.5179 71.0858 36.5179 71.162C36.5179 71.4095 35.8895 71.9999 35.6228 71.9999C35.4515 71.9999 35.4134 71.8666 35.4895 71.5238C35.5657 71.2001 35.5086 70.9144 35.3182 70.7049C35.0706 70.4383 35.0516 70.2479 35.2229 69.6004C35.4895 68.6483 35.3182 68.0389 34.8992 68.3817C34.7469 68.515 34.6136 68.7245 34.6136 68.8578C34.6136 68.9911 34.366 69.3529 34.0613 69.6385C33.7566 69.9432 33.471 70.3622 33.4329 70.5716C33.3186 71.2762 32.8425 70.9715 32.4807 69.9432C32.0427 68.6864 32.176 68.1532 33.1091 67.4105C33.5091 67.0867 33.8518 66.7059 33.8518 66.5535C33.8518 66.0203 33.2615 66.306 32.3093 67.2772C31.3953 68.2103 31.3191 68.2484 31.0715 67.9246C30.8621 67.6199 30.8621 67.4866 31.0715 67.0677C31.2239 66.8011 31.5095 66.1727 31.738 65.6585L32.1379 64.7635H33.3758C34.0613 64.7635 34.7659 64.6873 34.9563 64.5921C35.0575 64.5359 35.2317 64.4531 35.4123 64.3673C35.5376 64.3078 35.666 64.2468 35.7752 64.1922C37.3367 63.4685 38.1365 61.9451 38.1365 59.717C38.1365 58.3459 38.0604 58.0793 37.5081 57.1272C36.6893 55.6799 35.6038 54.7468 33.8709 53.966C30.2146 52.3283 27.2819 50.5763 26.1584 49.3385C25.6252 48.7482 25.6061 48.7482 25.2062 49.11C24.5016 49.7574 24.0065 49.9098 22.5211 49.9098C21.2262 49.9098 21.0167 49.9669 20.5978 50.3859C20.274 50.7286 20.1598 50.9952 20.236 51.2047C20.5978 52.0617 20.5787 52.195 20.1027 52.195C19.4361 52.195 18.6935 51.5475 18.4269 50.7667C18.2555 50.2526 18.2555 49.8527 18.4459 49.0528C18.5792 48.4625 18.7506 47.9483 18.8458 47.8912C18.922 47.8341 18.9981 47.1676 18.9981 46.4058C18.9981 44.73 19.3028 43.8921 20.236 43.0923C21.7594 41.7403 23.6447 41.169 28.5197 40.5786C31.5857 40.1978 32.6902 39.8931 34.0423 38.979C35.6609 37.9126 36.4798 36.5986 38.0413 32.6757C41.5072 23.9158 43.202 22.3924 52.895 19.4407C53.3596 19.3047 53.9455 19.1215 54.4643 18.9594L54.4655 18.959C54.8181 18.8488 55.1395 18.7483 55.3706 18.679C55.6637 18.5813 56.047 18.4635 56.4203 18.3489L56.4214 18.3485C56.7753 18.2398 57.12 18.1339 57.3702 18.0505C63.1402 16.2605 66.7965 14.0324 67.901 11.6711Z" fill="#F0AD4E"/>
<path d="M11 23.0589C11 18.4695 13.2281 13.861 17.6461 9.29065C18.7506 8.16711 19.379 7.74815 19.379 8.14806C19.379 8.22424 19.0743 8.98596 18.7125 9.86195C17.4366 12.8327 16.8653 16.1462 17.2843 18.2409C17.7222 20.488 18.6173 22.2971 20.3692 24.4871C22.5592 27.2103 24.5778 28.7718 30.2146 32.1234C35.4514 35.2275 36.2513 36.3129 34.5755 37.9887C33.3948 39.1504 32.4045 39.5312 29.8528 39.7978C25.8727 40.2168 24.5397 40.4834 22.8068 41.2261L22.1212 41.5117L21.8737 40.1406C21.4166 37.5888 20.0455 35.5702 17.5699 33.7802C14.4087 31.495 13.2471 30.3334 12.4473 28.6766C11.8379 27.4388 11.3809 26.1248 11.3809 25.5916C11.3809 25.3631 11.3047 25.1155 11.1904 25.0584C11.0762 25.0013 11 24.1063 11 23.0589Z" fill="#F0AD4E"/>
<path d="M35.4705 55.8702C35.4324 56.0035 35.3753 56.4796 35.3182 56.9747C35.2039 58.3077 34.3089 60.0788 33.2806 61.0309C32.0427 62.1926 31.281 62.5544 30.6335 62.3068C30.3669 62.2116 29.6052 62.0592 28.9577 62.0021C28.0056 61.8879 27.6628 61.945 27.2058 62.2116C26.7107 62.4972 26.6154 62.6877 26.6154 63.278C26.6154 63.3001 26.6154 63.3216 26.6154 63.3424C26.6152 63.7216 26.6151 63.9079 26.6962 63.9554C26.7746 64.0013 26.9288 63.9177 27.2319 63.7534C27.2541 63.7414 27.2771 63.7289 27.301 63.716C27.6057 63.5637 27.9675 63.4304 28.1008 63.4304C28.5007 63.4304 28.3484 63.8112 27.8532 64.0397C27.301 64.2873 27.1486 64.7634 27.1106 66.2488C27.0915 67.3723 27.4343 67.8103 27.739 67.0105C27.8342 66.7629 28.196 66.4201 28.5388 66.2297C28.9006 66.0393 29.3957 65.5442 29.6623 65.1442C30.1575 64.3064 30.4241 64.173 30.4241 64.7443C30.4241 65.9631 31.0525 66.0202 31.5857 64.8396C31.9094 64.1921 32.0808 64.0207 32.3093 64.1159C32.9378 64.3825 33.6805 64.4206 33.9471 64.1921C34.2137 63.9636 34.1946 63.8874 33.8328 63.5065C33.6043 63.259 33.4329 63.0305 33.49 62.9924C33.909 62.6877 34.823 62.4782 35.7562 62.4782C37.432 62.4782 37.6605 62.1926 37.6605 60.0407C37.6605 57.8507 37.0892 56.2892 36.1561 55.8893C35.68 55.6988 35.5276 55.6798 35.4705 55.8702Z" fill="#F0AD4E"/>
<path d="M52.3808 60.9358C51.5048 60.4978 50.8002 60.0598 50.8002 59.9646C50.8002 59.7551 51.1049 59.7741 51.5239 60.0027C51.6953 60.0979 52.3237 60.4026 52.895 60.6692C54.1328 61.2595 56.7607 62.6877 56.8941 62.8401C57.0083 62.9734 57.5415 63.3162 58.4175 63.7923C58.7793 63.9827 59.4268 64.4207 59.8457 64.7444C60.0627 64.9121 60.3103 65.1053 60.533 65.279C60.7404 65.4408 60.9261 65.5857 61.0455 65.6775C61.274 65.8489 61.5787 66.0774 61.712 66.1917C61.8262 66.2869 62.2833 66.6297 62.7022 66.9344C63.1212 67.2581 63.502 67.5628 63.5592 67.6199C63.6163 67.6771 63.8258 67.8675 64.0543 68.0198C64.8922 68.5721 67.1774 70.724 67.1774 70.9334C67.1774 71.3714 65.5397 71.6761 62.7593 71.7713C60.8439 71.8305 60.1471 71.8602 60.008 71.5962C59.9231 71.435 60.0461 71.1643 60.2266 70.724C60.6075 69.848 60.5884 69.429 60.1504 68.2674C59.1792 65.5823 56.5894 63.1638 52.3808 60.9358Z" fill="#F0AD4E"/>
</svg>

<svg xmlns="http://www.w3.org/2000/svg" viewBox="0 0 80 80">
  <rect width="100%" height="100%" fill="#202020"/>
  <path fill="#F0AD4E" d="M67.9 11.67c.17-.38.42-.76.52-.84.1-.07.22-.15.26-.15.14 0-.19 2.36-.46 3.33a15.7 15.7 0 0 1-1.54 4.02c-1.6 3.18-3.83 5.14-9.4 8.32-3.99 2.25-6.18 4.94-7.2 8.8a64.78 64.78 0 0 0-1.2 6.29c-.12.83-.35 2.17-.5 2.95-.51 2.45-.51 2.47-.19 2.47.82 0 3.87 3.56 5.47 6.36l.01.04c.21.38.53.94.73 1.26 2.23 3.94 5.58 8.15 8.2 10.3 1.17.97 3.85 2.78 5.24 3.56.63.34 1.3.76 1.49.92.55.5.34 2.13-.29 2.13-.07 0-.76-.53-1.52-1.16a41.52 41.52 0 0 0-2.63-2.04c-.68-.5-1.33-.97-1.45-1.09-.59-.53-4.13-3-5.94-4.15-3.88-2.45-8.9-4.7-10.5-4.7-1.17 0-2.18.7-3.26 2.28a12.45 12.45 0 0 1-2.21 2.57c-1.01 1.01-2.14 1.7-3.34 2.08-.51.15-.4.57.23.84a2.14 2.14 0 0 1 1.14 1.8c0 .58-.57.86-.7.37-.08-.3-1.45-1.18-1.85-1.18-.07 0-.1.32-.04.7.37 2.02.35 2.14-.05 2.7-.23.31-.4.64-.4.71 0 .25-.63.84-.9.84-.17 0-.2-.13-.13-.48.08-.32.02-.6-.17-.82-.25-.26-.27-.45-.1-1.1.27-.95.1-1.56-.32-1.22-.15.14-.29.34-.29.48 0 .13-.24.5-.55.78-.3.3-.59.72-.63.93-.11.7-.59.4-.95-.63-.44-1.25-.3-1.79.63-2.53.4-.32.74-.7.74-.86 0-.53-.59-.24-1.54.73-.91.93-1 .97-1.24.64-.2-.3-.2-.43 0-.85.15-.27.44-.9.67-1.41l.4-.9h1.24c.68 0 1.39-.07 1.58-.17a9.91 9.91 0 0 1 .82-.4c1.56-.72 2.36-2.24 2.36-4.47 0-1.37-.08-1.64-.63-2.6a7.22 7.22 0 0 0-3.64-3.15c-3.66-1.64-6.59-3.4-7.71-4.63-.53-.6-.55-.6-.95-.23-.7.65-1.2.8-2.69.8-1.3 0-1.5.06-1.92.48-.33.34-.44.6-.36.81.36.86.34 1-.14 1-.66 0-1.4-.65-1.67-1.43-.17-.52-.17-.92.02-1.72.13-.59.3-1.1.4-1.16.07-.06.15-.72.15-1.48 0-1.68.3-2.52 1.24-3.32 1.52-1.35 3.4-1.92 8.28-2.51 3.07-.38 4.17-.69 5.52-1.6 1.62-1.07 2.44-2.38 4-6.3 3.47-8.76 5.16-10.29 14.86-13.24l1.56-.48.91-.28 1.05-.33.95-.3c5.77-1.79 9.43-4.02 10.53-6.38Z"/>
  <path fill="#F0AD4E" d="M11 23.06c0-4.59 2.23-9.2 6.65-13.77 1.1-1.12 1.73-1.54 1.73-1.14 0 .07-.3.84-.67 1.71-1.27 2.97-1.84 6.29-1.43 8.38.44 2.25 1.34 4.06 3.09 6.25 2.19 2.72 4.2 4.28 9.84 7.63 5.24 3.1 6.04 4.2 4.37 5.87-1.19 1.16-2.18 1.54-4.73 1.8-3.98.43-5.31.7-7.04 1.44l-.69.28-.25-1.37c-.45-2.55-1.82-4.57-4.3-6.36-3.16-2.29-4.32-3.45-5.12-5.1a9.94 9.94 0 0 1-1.07-3.09c0-.23-.08-.47-.19-.53-.11-.06-.19-.95-.19-2ZM35.47 55.87c-.04.13-.1.61-.15 1.1-.12 1.34-1.01 3.1-2.04 4.06-1.24 1.16-2 1.52-2.65 1.28a8.94 8.94 0 0 0-1.67-.3c-.95-.12-1.3-.06-1.75.2-.5.29-.6.48-.6 1.07v.06c0 .38 0 .57.09.62.07.04.23-.04.53-.2l.07-.04c.3-.16.67-.29.8-.29.4 0 .25.38-.25.61-.55.25-.7.72-.74 2.2-.02 1.13.32 1.57.63.77.1-.25.46-.59.8-.78.36-.2.86-.69 1.12-1.09.5-.83.76-.97.76-.4 0 1.22.63 1.28 1.17.1.32-.65.5-.82.72-.72.63.26 1.37.3 1.64.07.26-.23.24-.3-.12-.68-.23-.25-.4-.48-.34-.52.42-.3 1.33-.51 2.27-.51 1.67 0 1.9-.29 1.9-2.44 0-2.19-.57-3.75-1.5-4.15-.48-.2-.63-.21-.69-.02ZM52.38 60.94a5.96 5.96 0 0 1-1.58-.98c0-.2.3-.19.72.04.18.1.8.4 1.38.67 1.23.59 3.86 2.02 4 2.17.1.13.64.48 1.52.95.36.2 1 .63 1.43.95l.68.54.52.4.66.51a20.43 20.43 0 0 1 2.34 1.83c.84.55 3.13 2.7 3.13 2.91 0 .44-1.64.75-4.42.84-1.92.06-2.61.09-2.75-.17-.09-.16.04-.44.22-.88.38-.87.36-1.3-.08-2.45-.97-2.69-3.56-5.1-7.77-7.33Z"/>
</svg>
